proprietary/assets/icons/gebouwen/woning-met-traplift.svg

<svg height="64" viewBox="0 0 64 64" width="64" xmlns="http://www.w3.org/2000/svg"><path d="m0 0h64v64h-64z" fill="none"/><path d="m61.2248 30.2057-28.4122-26.8855c-.4594-.4269-1.1659-.4269-1.6253 0l-28.4121 26.8855c-.4939.4595-.7752 1.1067-.7752 1.7847v1.7968c0 .6697.5374 1.2128 1.2 1.2128h4.8v25h48v-25h4.8c.6626 0 1.2-.5431 1.2-1.2128v-1.7968c0-.678-.2813-1.3252-.7752-1.7847zm-41.2248-2.2057c0-1.6569 1.3431-3 3-3h5c1.6569 0 3 1.3431 3 3v4c0 .5522-.4477 1-1 1h-9c-.5523 0-1-.4478-1-1zm10.9479 7.3162-.3334 1c-.136.4083-.5182.6838-.9486.6838h-8.3318c-.4304 0-.8126-.2755-.9487-.6838l-.3334-1c-.2158-.6475.2662-1.3162.9488-1.3162h8.9984c.6826 0 1.1646.6687.9487 1.3162zm17.0521-.3162h-9v6 4h-10v10h-13v-4h9v-10h10v-10h13z"/></svg>

<?xml version="1.0" encoding="utf-8"?>
<!-- Generator: Adobe Illustrator 19.1.0, SVG Export Plug-In . SVG Version: 6.00 Build 0)  -->
<svg version="1.2" baseProfile="tiny" xmlns="http://www.w3.org/2000/svg" xmlns:xlink="http://www.w3.org/1999/xlink" x="0px"
	 y="0px" width="64px" height="64px" viewBox="0 0 64 64" xml:space="preserve">
<g id="Box">
	<rect fill="none" width="64" height="64"/>
</g>
<g id="Icon">
	<path d="M61.2248,30.2057L32.8126,3.3202c-0.4594-0.4269-1.1659-0.4269-1.6253,0L2.7752,30.2057
		C2.2813,30.6652,2,31.3124,2,31.9904v1.7968C2,34.4569,2.5374,35,3.2,35H8v25h48V35h4.8c0.6626,0,1.2-0.5431,1.2-1.2128v-1.7968
		C62,31.3124,61.7187,30.6652,61.2248,30.2057z M20,28c0-1.6569,1.3431-3,3-3h5c1.6569,0,3,1.3431,3,3v4c0,0.5522-0.4477,1-1,1h-9
		c-0.5523,0-1-0.4478-1-1V28z M30.9479,35.3162l-0.3334,1C30.4785,36.7245,30.0963,37,29.6659,37h-8.3318
		c-0.4304,0-0.8126-0.2755-0.9487-0.6838l-0.3334-1C19.8362,34.6687,20.3182,34,21.0008,34h8.9984
		C30.6818,34,31.1638,34.6687,30.9479,35.3162z M48,35h-9v6v4H29v10H16v-4h9V41h10V31h13V35z"/>
</g>
</svg>
